X:1
T:Eckhardtsheim, CM
T:Heinrich Christoph (Charles) Zeuner, 1833
T:Eckhardtsheim, CM
T:Public Domain
C:Heinrich Christoph (Charles) Zeuner, 1833
Z:Public Domain
%%score ( 1 2 ) ( 3 4 )
L:1/8
M:3/4
K:Eb
V:1 treble 
V:2 treble 
V:3 bass 
V:4 bass 
V:1
 [EG]2 [DF]2 [EG]2 | [EA]4 [Ac]2 | [GB]4 [FA]2 | [FA]2 [EG]2 [EG]2 | D2 E2 [FB]2 | %5
 [Gc]2 [Fd]2 [Fe]2 | [Fd]6- | [Fd]4 [DF]2 | [EG]4 [EG]2 | [DF]2 [EG]2 [FA]2 | [GB]4 [FA]2 | %11
 [EG]4 [DF]2 | B2 G2 [Ec]2 | [EB]4 [DF]2 | [EG]6- | [EG]6 |] %16
V:2
 x6 | x6 | x6 | x6 | F4 x2 | x6 | x6 | x6 | x6 | x6 | x6 | x6 | E4 x2 | x6 | x6 | x6 |] %16
V:3
 [E,B,]2 [B,,B,]2 [E,B,]2 | [A,,C]4 [A,,E]2 | [B,,E]4 [B,,B,]2 | [E,B,]4 [E,B,]2 | %4
 [B,,B,]2 [C,=A,]2 [D,B,]2 | E,2 F,2 [F,=A,]2 | [B,,B,]6- | [B,,B,]4 [B,,B,]2 | [E,B,]4 [E,B,]2 | %9
 A,2 G,2 [F,B,]2 | [E,B,]4 (CD) | [E,E]4 [A,B,]2 | G,2 E,2 [A,,A,]2 | [B,,G,]4 [B,,B,]2 | %14
 [E,B,]6- | [E,B,]6 |] %16
V:4
 x6 | x6 | x6 | x6 | x6 | B,4 x2 | x6 | x6 | x6 | B,4 x2 | x4 E,2 | x6 | B,4 x2 | x6 | x6 | x6 |] %16

